!!!COM: Schiørring, Niels
!!!CDT: 1743-1798
!!!OPR@@DA: Choral-Bog
!!!ONM: 28
!!!OTL@@DA: Herre Chriſt! Gud Faders eenbaarne Søn
**kern	**kern	**kern	**kern	**fb	**kern	**kern	**kern	**kern
*part6	*part5	*part6	*part5	*part5	*part4	*part3	*part2	*part1
*staff8	*staff6	*staff7	*staff5	*	*staff4	*staff3	*staff2	*staff1
*clefF4	*clefF4	*clefC1	*clefC1	*	*clefF4	*clefC4	*clefC3	*clefC1
*	*	*	*	*	*	*Trd0c0	*	*
*k[f#]	*k[f#]	*k[f#]	*k[f#]	*	*k[f#]	*k[f#]	*k[f#]	*k[f#]
*G:	*G:	*G:	*G:	*	*G:	*G:	*G:	*G:
*M4/4	*M4/4	*M4/4	*M4/4	*	*M4/4	*M4/4	*M4/4	*M4/4
*met(c)	*met(c)	*met(c)	*met(c)	*	*met(c)	*met(c)	*met(c)	*met(c)
*	*^	*	*^	*	*	*	*	*
2G	2B	2G	2g	2g	2d	.	2G	2b	2d	2g
=1	=1	=1	=1	=1	=1	=1	=1	=1	=1	=1
2E	2B	2E	2g	2g	2e	.	2E	2b	2e	2g
4BB	2G	4BB	2b	2b	4d	.	4BB	4dd	2g	2b
4C	.	4C	.	.	[4e	.	4C	[4ee	.	.
=2	=2	=2	=2	=2	=2	=2	=2	=2	=2	=2
2D	2F#	2D	2a	2a	4e]	.	2D	(4ee]	2f#	2a
.	.	.	.	.	8cJ	8	.	8ccJ)	.	.
2E	[2E	2E	2g	2g	2B	.	2E	2b	[2e	2g
=3	=3	=3	=3	=3	=3	=3	=3	=3	=3	=3
2AA	2E]	2AA	1f#	1f#	2c	.	(2AA	(2cc	(2e]	1f#
2BB	4D#X	2BB	.	.	2B	.	2BB)	4b	2d#X)	.
.	4A	.	.	.	.	.	.	4a)	.	.
=4	=4	=4	=4	=4	=4	=4	=4	=4	=4	=4
2E	2G	2E	2e	2e	2B	.	2E	2g	2e	2e
2GG#X	2E	2GG#X	2b	2b	2dni	.	2GG#X	2dd	2e	2b
=5	=5	=5	=5	=5	=5	=5	=5	=5	=5	=5
2AA	2E	2AA	2cc	2cc	2c	.	2AA	2cc	2e	2cc
2D	2F#	2D	2a	2a	2d	.	2D	2dd	2f#	2a
=6	=6	=6	=6	=6	=6	=6	=6	=6	=6	=6
2G	2.G	2GG	2b	2b	1d	.	2G	2dd	2.g	2b
2D	.	2D	2a	2a	.	.	2D	(4dd	.	2a
=	=	=	=	=	=	=	=	=	=	=
*	*	*	*	*	*^	*	*	*	*	*
2GG	2G	2GG	2g	2g	2B	2d/	.	2GG	2b	2g	2g
*	*	*	*	*	*v	*v	*	*	*	*	*
=7:|!	=7:|!	=7:|!	=7:|!	=7:|!	=7:|!	=7:|!	=7:|!	=7:|!	=7:|!	=7:|!
2E	2B	2E	2g	2g	2e	.	2E	2b	2e	2g
=8	=8	=8	=8	=8	=8	=8	=8	=8	=8	=8
2D	2B	2D	2b	2b	2fn	.	2D	2b	2fn	2b
2E	2G#X	2E	2b	2b	2e	.	2E	2g#X	2e	2b
=9	=9	=9	=9	=9	=9	=9	=9	=9	=9	=9
2A	2A	2A	2cc	2cc	2e	.	2A	2a	2e	2cc
2AA	2ryy@	2AA	2cc	2e	2a	.	2AA	2ee	[2a	2cc
=10	=10	=10	=10	=10	=10	=10	=10	=10	=10	=10
2.BB	1ryy	2.BB	1dd	1d	2a	.	(2.BB	1dd	(2a]	1dd
*	*	*	*	*v	*v	*	*	*	*	*
4C	.	4C	.	.	.	4C)	.	.	.
=11	=11	=11	=11	=11	=11	=11	=11	=11	=11
*	*	*	*	*^	*	*	*	*	*
2D	1ryy	2D	2a	2d	4g]	.	2D	2dd	(4g]	2a
2F#	.	2F#	2dd	2d	2a	.	2F#	2dd	2a	2dd
=12	=12	=12	=12	=12	=12	=12	=12	=12	=12	=12
2G	1ryy	2G	2b	2d	2g	.	2G	2dd	2g	2b
4E	.	4E	2b	[2e	[2g	.	(4E	2ee	[2g	2b
4D	.	4D	.	.	.	.	4D)	.	.	.
=13	=13	=13	=13	=13	=13	=13	=13	=13	=13	=13
4C#X	1ryy	4C#X	2a	4e]	4g]	.	(4C#X	(4ee	(4g]	2a
4D#X	.	4D#X	.	2.B	2f#	.	4D#X)	4b)	2f#)	.
2E	.	2E	2g	.	.	.	2E	2b	.	2g
=14	=14	=14	=14	=14	=14	=14	=14	=14	=14	=14
2AA	2ryy@	2AA	1f#	2cni	2e	.	(2AA	(2cc	(2e	1f#
2BB	4B	2BB	.	4ryy@	2d#X	.	2BB)	4b	2d#X)	.
.	4A	.	.	4ryy@	.	.	.	4a)	.	.
=15	=15	=15	=15	=15	=15	=15	=15	=15	=15	=15
2C	2G	2C	2e	2e	2e	.	2C	2g	2e	2e
2BB	2G#X	2BB	2b	2b	2dni	.	2BB	2g#X	2dni	2b
=16	=16	=16	=16	=16	=16	=16	=16	=16	=16	=16
2AA	2A	2AA	2cc	2cc	2e	.	2AA	2a	2e	2cc
2D	2F#	2D	2a	2a	2d	.	2D	2f#	2d	2a
=17	=17	=17	=17	=17	=17	=17	=17	=17	=17	=17
4GG	2.G	4GG	2b	2b	2d	.	(4GG	[2g	2d	2b
4BB	.	4BB	.	.	.	.	4BB)	.	.	.
4C	.	4C	2a	2a	4e	.	(4C	(4g]	(4e	2a
4D	4F#	4D	.	.	4d	.	4D)	4f#)	4d)	.
=18	=18	=18	=18	=18	=18	=18	=18	=18	=18	=18
*	*	*	*	*	*^	*	*	*	*	*
2GG	2G	2GG	2g	2g	2B	2d/	.	2GG	2g	2B	2g
*	*v	*v	*	*	*	*	*	*	*	*	*
*	*	*	*v	*v	*v	*	*	*	*	*
==	==	==	==	==	==	==	==	==
*-	*-	*-	*-	*-	*-	*-	*-	*-
!!!system-decoration: {(s1,s2,s3,s4)}{(s5,s6)}{(s7,s8)}
!!!RDF**kern: i = editorial accidental
!!!AGN: chorale
!!!EED: Derek Remeš
!!!EED2: Victor Phan
!!!END: 2023/11/28
!!!ENC: Wolfgang Drescher
!!!EEV: 2023/11/28
!!!title: @{ONM}. @{OTL}